src/pages/Board/Slider/img/5.svg

<?xml version="1.0" encoding="UTF-8"?>
<svg fill="none" viewBox="0 0 133 134" xmlns="http://www.w3.org/2000/svg">
<g filter="url(#a)">
<circle cx="65.5" cy="65" r="47.5" fill="#fff"/>
</g>
<path d="m90.482 49.505 6.3429-1.529-6.4262-1.548-1.544-6.0444-1.5441 6.0444-6.4261 1.548 6.3428 1.529 1.6274 6.373 1.6273-6.373z" fill="#FD9558"/>
<path d="m40.219 59.439 3.8029-0.9167-3.8528-0.9281-0.9258-3.6239-0.9257 3.6239-3.8529 0.9281 3.8029 0.9167 0.9757 3.821 0.9757-3.821z" fill="#FFB762"/>
<path d="m69.816 71.038c2.5982-16.659 10.604-21.228 10.604-21.228-3.7307 6.6967-6.561 13.831-8.4214 21.228h-2.1822z" fill="#1E7836"/>
<path d="m72.912 71.038c1.6759-11.188 9.2473-9.7882 9.2473-9.7882s-3.4421-0.9665-7.0651 9.7882h-2.1822z" fill="#1E7836"/>
<path d="m72.912 71.038c1.6759-11.188 9.2473-9.7882 9.2473-9.7882s-5.2144-0.9665-8.8313 9.7882h-0.416z" fill="#1E7836"/>
<path d="m56.288 71.184c-1.3442-11.235-8.9519-10.04-8.9519-10.04s3.4663-0.8904 6.7637 9.9581l2.1882 0.082z" fill="#1E7836"/>
<path d="m56.408 71.078c-1.6156-11.171-9.1931-9.8352-9.1931-9.8352s5.2084-0.9548 8.7711 9.8352h0.422z" fill="#1E7836"/>
<path d="m58.892 71.096c-2.4534-16.677-10.423-21.31-10.423-21.31 3.673 6.7258 6.4425 13.882 8.2405 21.293l2.1822 0.0176z" fill="#1E7836"/>
<path d="m58.892 71.097c-2.4535-16.677-9.5186-20.648-9.5186-20.648s6.1428 4.8912 8.4396 20.631l1.079 0.0176z" fill="#1E7836"/>
<path d="m62.217 71.038c0.6028-16.923-5.9378-35.808-5.9378-35.808s0.3496 23.847 3.7676 35.808h2.1702z" fill="#1E7836"/>
<path d="m60.714 71.038c-1.4287-15.523-4.4187-35.808-4.4187-35.808s0.3376 23.847 3.7556 35.808h0.6631z" fill="#1E7836"/>
<path d="m66.835 71.038c-0.3978-16.952 6.4141-35.732 6.4141-35.732s-0.6511 23.823-4.2198 35.732h-2.1943z" fill="#1E7836"/>
<path d="m67.715 71.038c0.7475-17.573 5.5339-34.777 5.5339-34.777s-0.651 22.845-4.2197 34.783l-1.3142-0.0058z" fill="#1E7836"/>
<path d="m63.329 71.038c-0.4039-16.935 0.4521-39.616 0.4521-39.616s5.3109 27.689 1.7361 39.616h-2.1882z" fill="#1E7836"/>
<path d="m73.076 91.71h-19.941l-3.0623-22.06h25.68l-2.6766 22.06z" fill="#FD9558"/>
<path d="m78.162 74.191-2.3791 20.41h-17.702l-2.7239-20.41h22.805z" fill="#fff" stroke="#FD9558"/>
<path d="m88.218 99.466h-49.22l-3.195-13.836h55.478l-3.0623 13.836z" fill="#00C65E"/>
<path d="m88.46 99.741h-49.709l-3.3276-14.41h56.231l-3.1949 14.41zm-49.226-0.5858h48.738l2.9357-13.256h-54.73l3.0563 13.256z" fill="#00C65E"/>
<path d="m84.265 87.076-2.351-0.5272c1.4588-6.1389 3.2431-10.456 5.2927-12.828 1.7301-2.0092 3.1468-2.0209 3.5386-1.9741 0.3702 0.026 0.7293 0.1346 1.0493 0.3175 0.3199 0.1829 0.5921 0.4351 0.7953 0.7369 1.3202 1.8394 0.8922 6.4435-1.2659 13.637l-2.3148-0.6561c2.6765-8.9271 1.9049-11.499 1.5492-11.715-0.3436 0.0937-3.4662 1.1071-6.2934 13.01z" fill="#00C65E"/>
<path d="m35.896 86.79c-2.6585-6.9121-3.4241-11.423-2.2727-13.402 0.1843-0.3288 0.4427-0.6128 0.7558-0.8309 0.3132-0.2181 0.6731-0.3646 1.0527-0.4285 0.8018-0.1874 5.3169-0.4335 9.8561 13.83l-2.3027 0.6912c-2.0255-6.3615-3.9124-9.3724-5.1421-10.761-1.1213-1.2829-1.8567-1.4293-2.0074-1.4469-0.0422 0-0.0663 0.041-0.1025 0.0996-0.5425 0.9372-0.2351 4.4929 2.4113 11.422l-2.2485 0.826zm0-12.372h-0.0483 0.0483z" fill="#00C65E"/>
<path d="m44.222 99.758h0.7174l-2.339-14.439h-0.7113l2.3329 14.439z" fill="#FFB762"/>
<path d="m40.724 99.776 1.3142 0.0058-2.333-14.439-1.3201-0.0058 2.3389 14.439z" fill="#FFB762"/>
<path d="m48.569 99.776 0.4461 0.0058-2.3389-14.439-0.4401-0.0058 2.3329 14.439z" fill="#FFB762"/>
<path d="m78.4 99.764h-1.3142l2.4113-14.428h1.3142l-2.4113 14.428z" fill="#FFB762"/>
<path d="m85.205 99.764h-2.5198l2.4113-14.428h2.5198l-2.4113 14.428z" fill="#FFB762"/>
<defs>
<filter id="a" x="0" y=".5" width="133" height="133" color-interpolation-filters="sRGB" filterUnits="userSpaceOnUse">
<feFlood flood-opacity="0" result="BackgroundImageFix"/>
<feColorMatrix in="SourceAlpha" result="hardAlpha" values="0 0 0 0 0 0 0 0 0 0 0 0 0 0 0 0 0 0 127 0"/>
<feMorphology in="SourceAlpha" operator="dilate" radius="3" result="effect1_dropShadow_5137_20202"/>
<feOffset dx="1" dy="2"/>
<feGaussianBlur stdDeviation="8"/>
<feColorMatrix values="0 0 0 0 0.211765 0 0 0 0 0.227451 0 0 0 0 0.270588 0 0 0 0.08 0"/>
<feBlend in2="BackgroundImageFix" result="effect1_dropShadow_5137_20202"/>
<feBlend in="SourceGraphic" in2="effect1_dropShadow_5137_20202" result="shape"/>
</filter>
</defs>
</svg>

<svg width="133" height="134" viewBox="0 0 133 134" fill="none" xmlns="http://www.w3.org/2000/svg">
<g filter="url(#filter0_d_5137_20202)">
<circle cx="65.5" cy="65" r="47.5" fill="white"/>
</g>
<path d="M90.4823 49.5054L96.8252 47.9764L90.399 46.4284L88.855 40.384L87.3109 46.4284L80.8848 47.9764L87.2276 49.5054L88.855 55.8784L90.4823 49.5054Z" fill="#FD9558"/>
<path d="M40.2191 59.4387L44.022 58.522L40.1692 57.5939L39.2434 53.97L38.3177 57.5939L34.4648 58.522L38.2677 59.4387L39.2434 63.2597L40.2191 59.4387Z" fill="#FFB762"/>
<path d="M69.8164 71.0377C72.4146 54.3783 80.42 49.8093 80.42 49.8093C76.6893 56.506 73.859 63.6404 71.9986 71.0377H69.8164Z" fill="#1E7836"/>
<path d="M72.9121 71.0379C74.588 59.8497 82.1594 61.2497 82.1594 61.2497C82.1594 61.2497 78.7173 60.2832 75.0943 71.0379H72.9121Z" fill="#1E7836"/>
<path d="M72.9121 71.0379C74.588 59.8497 82.1594 61.2497 82.1594 61.2497C82.1594 61.2497 76.945 60.2832 73.3281 71.0379H72.9121Z" fill="#1E7836"/>
<path d="M56.2878 71.1838C54.9436 59.9487 47.3359 61.1437 47.3359 61.1437C47.3359 61.1437 50.8022 60.2533 54.0996 71.1018L56.2878 71.1838Z" fill="#1E7836"/>
<path d="M56.4079 71.0785C54.7923 59.9078 47.2148 61.2433 47.2148 61.2433C47.2148 61.2433 52.4232 60.2885 55.9859 71.0785H56.4079Z" fill="#1E7836"/>
<path d="M58.8915 71.0958C56.4381 54.4189 48.4688 49.7854 48.4688 49.7854C52.1418 56.5112 54.9113 63.6672 56.7093 71.0782L58.8915 71.0958Z" fill="#1E7836"/>
<path d="M58.8916 71.0967C56.4381 54.4198 49.373 50.4482 49.373 50.4482C49.373 50.4482 55.5158 55.3394 57.8126 71.0791L58.8916 71.0967Z" fill="#1E7836"/>
<path d="M62.2171 71.0377C62.8199 54.1148 56.2793 35.2295 56.2793 35.2295C56.2793 35.2295 56.6289 59.0763 60.0469 71.0377H62.2171Z" fill="#1E7836"/>
<path d="M60.7136 71.0377C59.2849 55.5148 56.2949 35.2295 56.2949 35.2295C56.2949 35.2295 56.6325 59.0763 60.0505 71.0377H60.7136Z" fill="#1E7836"/>
<path d="M66.8351 71.0375C66.4373 54.0853 73.2492 35.3054 73.2492 35.3054C73.2492 35.3054 72.5981 59.1288 69.0294 71.0375H66.8351Z" fill="#1E7836"/>
<path d="M67.7148 71.0383C68.4623 53.4651 73.2487 36.261 73.2487 36.261C73.2487 36.261 72.5977 59.1061 69.029 71.0441L67.7148 71.0383Z" fill="#1E7836"/>
<path d="M63.329 71.0376C62.9251 54.103 63.7811 31.4219 63.7811 31.4219C63.7811 31.4219 69.092 59.1113 65.5172 71.0376H63.329Z" fill="#1E7836"/>
<path d="M73.0759 91.7098H53.1346L50.0723 69.6497H72.7685H75.7525L73.0759 91.7098Z" fill="#FD9558"/>
<path d="M78.1615 74.1914L75.7824 94.6014H58.0802L55.3563 74.1914H75.9442H78.1615Z" fill="white" stroke="#FD9558"/>
<path d="M88.2181 99.4663H38.9977L35.8027 85.6304H84.8423H91.2804L88.2181 99.4663Z" fill="#00C65E"/>
<path d="M88.4601 99.7408H38.7514L35.4238 85.3308H91.655L88.4601 99.7408ZM39.2337 99.155H87.9718L90.9075 85.899H36.1774L39.2337 99.155Z" fill="#00C65E"/>
<path d="M84.2651 87.0763L81.9141 86.5491C83.3729 80.4102 85.1572 76.0931 87.2068 73.7207C88.9369 71.7115 90.3536 71.6998 90.7454 71.7466C91.1156 71.7726 91.4747 71.8812 91.7947 72.0641C92.1146 72.247 92.3868 72.4992 92.59 72.801C93.9102 74.6404 93.4822 79.2445 91.3241 86.4378L89.0093 85.7817C91.6858 76.8546 90.9142 74.283 90.5585 74.0663C90.2149 74.16 87.0923 75.1734 84.2651 87.0763Z" fill="#00C65E"/>
<path d="M35.8955 86.7905C33.237 79.8784 32.4714 75.3679 33.6228 73.388C33.8071 73.0592 34.0655 72.7752 34.3786 72.5571C34.6918 72.339 35.0517 72.1925 35.4313 72.1286C36.2331 71.9412 40.7482 71.6951 45.2874 85.9587L42.9847 86.6499C40.9592 80.2884 39.0723 77.2775 37.8426 75.8893C36.7213 74.6064 35.9859 74.46 35.8352 74.4424C35.793 74.4424 35.7689 74.4834 35.7327 74.542C35.1902 75.4792 35.4976 79.0349 38.144 85.9645L35.8955 86.7905ZM35.8955 74.419H35.8472H35.8955Z" fill="#00C65E"/>
<path d="M44.2216 99.7576H44.939L42.6 85.3184H41.8887L44.2216 99.7576Z" fill="#FFB762"/>
<path d="M40.7237 99.7755L42.0379 99.7813L39.7049 85.342L38.3848 85.3362L40.7237 99.7755Z" fill="#FFB762"/>
<path d="M48.5692 99.7755L49.0153 99.7813L46.6764 85.342L46.2363 85.3362L48.5692 99.7755Z" fill="#FFB762"/>
<path d="M78.4001 99.7637H77.0859L79.4972 85.3362H80.8114L78.4001 99.7637Z" fill="#FFB762"/>
<path d="M85.2053 99.7637H82.6855L85.0968 85.3362H87.6166L85.2053 99.7637Z" fill="#FFB762"/>
<defs>
<filter id="filter0_d_5137_20202" x="0" y="0.5" width="133" height="133" filterUnits="userSpaceOnUse" color-interpolation-filters="sRGB">
<feFlood flood-opacity="0" result="BackgroundImageFix"/>
<feColorMatrix in="SourceAlpha" type="matrix" values="0 0 0 0 0 0 0 0 0 0 0 0 0 0 0 0 0 0 127 0" result="hardAlpha"/>
<feMorphology radius="3" operator="dilate" in="SourceAlpha" result="effect1_dropShadow_5137_20202"/>
<feOffset dx="1" dy="2"/>
<feGaussianBlur stdDeviation="8"/>
<feColorMatrix type="matrix" values="0 0 0 0 0.211765 0 0 0 0 0.227451 0 0 0 0 0.270588 0 0 0 0.08 0"/>
<feBlend mode="normal" in2="BackgroundImageFix" result="effect1_dropShadow_5137_20202"/>
<feBlend mode="normal" in="SourceGraphic" in2="effect1_dropShadow_5137_20202" result="shape"/>
</filter>
</defs>
</svg>
